; generated by Slic3r 1.31.5-prusa3d-win64 on 2016-12-13 at 13:02:55

; external perimeters extrusion width = 0.50mm
; perimeters extrusion width = 0.50mm
; infill extrusion width = 0.50mm
; solid infill extrusion width = 0.50mm
; top infill extrusion width = 0.50mm

; external perimeters extrusion width = 0.50mm
; perimeters extrusion width = 0.50mm
; infill extrusion width = 0.50mm
; solid infill extrusion width = 0.50mm
; top infill extrusion width = 0.50mm

; external perimeters extrusion width = 0.50mm
; perimeters extrusion width = 0.50mm
; infill extrusion width = 0.50mm
; solid infill extrusion width = 0.50mm
; top infill extrusion width = 0.50mm

M107
M190 S60 ; set bed temperature and wait for it to be reached
G28; home all
; layer_height =0.3
G10 P0 S195 R195               ; Set tool 0 operating and standby temperatures
G10 P1 S195 R195               ; Set tool 1 operating and standby temperatures
G10 P2 S195 R195               ; Set tool 2 operating and standby temperatures
G10 P3 S195 R195               ; Set tool 3 operating and standby temperatures
G1 X0 Y0 F9000 ; move to X,Y =zero 
T0; select a tool 0 
M109 S195 ; complete tool heating to 195 and wait.
M300 S3000 P100; play second beep at higher frequency
M83; Set extruder to relative
;begin
G21 ; set units to millimeters
G90 ; use absolute coordinates
M83 ; use relative distances for extrusion
T0
G10 ; retract
G1 Z0.300 F21000.000
G1 X127.750 Y128.465 F21000.000
G11 ; unretract
G1 F2700
G1 X130.016 Y127.305 E0.21019
G1 X132.550 Y126.901 E0.21193
G1 X192.450 Y126.901 E4.94627
G1 X194.964 Y127.298 E0.21019
G1 X197.233 Y128.452 E0.21019
G1 X199.035 Y130.250 E0.21019
G1 X200.195 Y132.516 E0.21019
G1 X200.599 Y135.050 E0.21193
G1 X200.599 Y194.950 E4.94627
G1 X200.202 Y197.464 E0.21019
G1 X199.048 Y199.733 E0.21019
G1 X197.250 Y201.535 E0.21019
G1 X194.984 Y202.695 E0.21019
G1 X192.450 Y203.099 E0.21193
G1 X132.550 Y203.099 E4.94627
G1 X130.036 Y202.702 E0.21019
G1 X127.767 Y201.548 E0.21019
G1 X125.965 Y199.750 E0.21019
G1 X124.805 Y197.484 E0.21019
G1 X124.401 Y194.950 E0.21193
G1 X124.401 Y135.050 E4.94627
G1 X124.798 Y132.536 E0.21019
G1 X125.952 Y130.267 E0.21019
G1 X127.697 Y128.518 E0.20400
G1 X128.461 Y128.866 F21000.000
G1 F2700
G1 X130.677 Y127.877 E0.20042
G1 X132.550 Y127.636 E0.15589
G1 X192.450 Y127.636 E4.94627
G1 X194.844 Y128.034 E0.20042
G1 X196.982 Y129.183 E0.20042
G1 X198.634 Y130.961 E0.20042
G1 X199.623 Y133.177 E0.20042
G1 X199.864 Y135.050 E0.15589
G1 X199.864 Y194.950 E4.94627
G1 X199.466 Y197.344 E0.20042
G1 X198.317 Y199.482 E0.20042
G1 X196.539 Y201.134 E0.20042
G1 X194.323 Y202.123 E0.20042
G1 X192.450 Y202.364 E0.15589
G1 X132.550 Y202.364 E4.94627
G1 X130.156 Y201.966 E0.20042
G1 X128.018 Y200.817 E0.20042
G1 X126.366 Y199.039 E0.20042
G1 X125.377 Y196.823 E0.20042
G1 X125.136 Y194.950 E0.15589
G1 X125.136 Y135.050 E4.94627
G1 X125.534 Y132.656 E0.20042
G1 X126.683 Y130.518 E0.20042
G1 X128.406 Y128.917 E0.19423
G1 X129.167 Y129.292 F21000.000
G1 F2700
G1 X131.324 Y128.485 E0.19015
G1 X132.550 Y128.372 E0.10166
G1 X192.450 Y128.372 E4.94627
G1 X194.718 Y128.769 E0.19015
G1 X196.717 Y129.913 E0.19015
G1 X198.208 Y131.667 E0.19015
G1 X199.015 Y133.824 E0.19015
G1 X199.128 Y135.050 E0.10166
G1 X199.128 Y194.950 E4.94627
G1 X198.731 Y197.218 E0.19015
G1 X197.587 Y199.217 E0.19015
G1 X195.833 Y200.708 E0.19015
G1 X193.676 Y201.515 E0.19015
G1 X192.450 Y201.628 E0.10166
G1 X132.550 Y201.628 E4.94627
G1 X130.282 Y201.231 E0.19015
G1 X128.283 Y200.087 E0.19015
G1 X126.792 Y198.333 E0.19015
G1 X125.985 Y196.176 E0.19015
G1 X125.872 Y194.950 E0.10166
G1 X125.872 Y135.050 E4.94627
G1 X126.269 Y132.782 E0.19015
G1 X127.413 Y130.783 E0.19015
G1 X129.110 Y129.341 E0.18395
G10 ; retract
T1
G1 X129.867 Y129.748 F21000.000
G1 F2700
G1 X132.550 Y129.108 E0.22780
G1 X192.450 Y129.108 E4.94627
G1 X194.585 Y129.504 E0.17929
G1 X196.434 Y130.641 E0.17929
G1 X197.752 Y132.367 E0.17929
G1 X198.392 Y135.050 E0.22780
G1 X198.392 Y194.950 E4.94627
G1 X197.996 Y197.085 E0.17929
G1 X196.859 Y198.934 E0.17929
G1 X195.133 Y200.252 E0.17929
G1 X192.450 Y200.892 E0.22780
G1 X132.550 Y200.892 E4.94627
G1 X130.415 Y200.496 E0.17929
G1 X128.566 Y199.359 E0.17929
G1 X127.248 Y197.633 E0.17929
G1 X126.608 Y194.950 E0.22780
G1 X126.608 Y135.050 E4.94627
G1 X127.004 Y132.915 E0.17929
G1 X128.141 Y131.066 E0.17929
G1 X129.807 Y129.793 E0.17309
G1 X130.556 Y130.240 F21000.000
G1 F2700
G1 X132.550 Y129.843 E0.16788
G1 X192.450 Y129.843 E4.94627
G1 X194.442 Y130.239 E0.16772
G1 X196.131 Y131.367 E0.16772
G1 X197.260 Y133.056 E0.16772
G1 X197.657 Y135.050 E0.16788
G1 X197.657 Y194.950 E4.94627
G1 X197.261 Y196.942 E0.16772
G1 X196.133 Y198.631 E0.16772
G1 X194.444 Y199.760 E0.16772
G1 X192.450 Y200.157 E0.16788
G1 X132.550 Y200.157 E4.94627
G1 X130.558 Y199.761 E0.16772
G1 X128.869 Y198.633 E0.16772
G1 X127.740 Y196.944 E0.16772
G1 X127.343 Y194.950 E0.16788
G1 X127.343 Y135.050 E4.94627
G1 X127.739 Y133.058 E0.16772
G1 X128.867 Y131.369 E0.16772
G1 X130.494 Y130.282 E0.16153
G1 X129.591 Y131.698 F21000.000
G1 F2700
G1 X131.231 Y130.778 E0.15530
G1 X132.550 Y130.579 E0.11015
G1 X192.450 Y130.579 E4.94627
G1 X194.289 Y130.974 E0.15530
G1 X195.802 Y132.091 E0.15530
G1 X196.722 Y133.731 E0.15530
G1 X196.921 Y135.050 E0.11015
G1 X196.921 Y194.950 E4.94627
G1 X196.526 Y196.789 E0.15530
G1 X195.409 Y198.302 E0.15530
G1 X193.769 Y199.222 E0.15530
G1 X192.450 Y199.421 E0.11015
G1 X132.550 Y199.421 E4.94627
G1 X130.711 Y199.026 E0.15530
G1 X129.198 Y197.909 E0.15530
G1 X128.278 Y196.269 E0.15530
G1 X128.079 Y194.950 E0.11015
G1 X128.079 Y135.050 E4.94627
G1 X128.474 Y133.211 E0.15530
G1 X129.546 Y131.758 E0.14911
G10 ; retract
T2
G1 X130.310 Y132.061 F21000.000
G1 F2700
G1 X132.550 Y131.314 E0.19500
G1 X192.450 Y131.314 E4.94627
G1 X194.121 Y131.709 E0.14179
G1 X195.439 Y132.810 E0.14179
G1 X196.186 Y135.050 E0.19500
G1 X196.186 Y194.950 E4.94627
G1 X195.791 Y196.621 E0.14179
G1 X194.690 Y197.939 E0.14179
G1 X192.450 Y198.686 E0.19500
G1 X132.550 Y198.686 E4.94627
G1 X130.879 Y198.291 E0.14179
G1 X129.561 Y197.190 E0.14179
G1 X128.814 Y194.950 E0.19500
G1 X128.814 Y135.050 E4.94627
G1 X129.209 Y133.379 E0.14179
G1 X130.262 Y132.118 E0.13560
G10 ; retract
T1
G1 X166.364 Y143.864 F21000.000
G11 ; unretract
G1 F2700
G1 X183.636 Y143.864 E1.42618
G1 X183.636 Y186.136 E3.49057
G1 X166.364 Y186.136 E1.42618
G1 X166.364 Y143.939 E3.48437
G1 X167.100 Y144.600 F21000.000
G1 F2700
G1 X182.900 Y144.600 E1.30469
G1 X182.900 Y185.400 E3.36908
G1 X167.100 Y185.400 E1.30469
G1 X167.100 Y144.675 E3.36289
G1 X167.039 Y144.104 F21000.000
G10 ; retract
G1 X141.364 Y143.864 F21000.000
G11 ; unretract
G1 F2700
G1 X158.636 Y143.864 E1.42618
G1 X158.636 Y186.136 E3.49057
G1 X141.364 Y186.136 E1.42618
G1 X141.364 Y143.939 E3.48437
G1 X142.100 Y144.600 F21000.000
G1 F2700
G1 X157.900 Y144.600 E1.30469
G1 X157.900 Y185.400 E3.36908
G1 X142.100 Y185.400 E1.30469
G1 X142.100 Y144.675 E3.36289
G1 X142.039 Y144.104 F21000.000
G10 ; retract
G1 X133.686 Y136.186 F21000.000
G11 ; unretract
G1 F2700
G1 X191.314 Y136.186 E4.75872
G1 X191.314 Y193.814 E4.75872
G1 X133.686 Y193.814 E4.75872
G1 X133.686 Y136.261 E4.75253
G1 X132.950 Y135.450 F21000.000
G1 F2700
G1 X192.050 Y135.450 E4.88021
G1 X192.050 Y194.550 E4.88021
G1 X132.950 Y194.550 E4.88021
G1 X132.950 Y135.525 E4.87402
G1 X133.433 Y135.579 F21000.000
G10 ; retract
G1 X158.885 Y143.570 F21000.000
G11 ; unretract
G1 F2700
G1 X152.126 Y136.811 E0.79514
G1 X151.078 Y136.811 E0.08717
G1 X157.506 Y143.239 E0.75620
G1 X156.458 Y143.239 E0.08717
G1 X150.030 Y136.811 E0.75620
G1 X148.982 Y136.811 E0.08717
G1 X155.411 Y143.239 E0.75620
G1 X154.363 Y143.239 E0.08717
G1 X147.934 Y136.811 E0.75620
G1 X146.886 Y136.811 E0.08717
G1 X153.315 Y143.239 E0.75620
G1 X152.267 Y143.239 E0.08717
G1 X145.838 Y136.811 E0.75620
G1 X144.790 Y136.811 E0.08717
G1 X151.219 Y143.239 E0.75620
G1 X150.171 Y143.239 E0.08717
G1 X143.742 Y136.811 E0.75620
G1 X142.695 Y136.811 E0.08717
G1 X149.123 Y143.239 E0.75620
G1 X148.075 Y143.239 E0.08717
G1 X141.647 Y136.811 E0.75620
G1 X140.599 Y136.811 E0.08717
G1 X147.027 Y143.239 E0.75620
G1 X145.979 Y143.239 E0.08717
G1 X139.551 Y136.811 E0.75620
G1 X138.503 Y136.811 E0.08717
G1 X144.931 Y143.239 E0.75620
G1 X143.883 Y143.239 E0.08717
G1 X137.455 Y136.811 E0.75620
G1 X136.407 Y136.811 E0.08717
G1 X142.835 Y143.239 E0.75620
G1 X141.787 Y143.239 E0.08717
G1 X135.359 Y136.811 E0.75620
G1 X134.311 Y136.811 E0.08717
G1 X140.739 Y143.239 E0.75620
G1 X140.739 Y144.287 E0.08717
G1 X134.311 Y137.859 E0.75620
G1 X134.311 Y138.907 E0.08717
G1 X140.739 Y145.335 E0.75620
G1 X140.739 Y146.383 E0.08717
G1 X134.311 Y139.955 E0.75620
G1 X134.311 Y141.003 E0.08717
G1 X140.739 Y147.431 E0.75620
G1 X140.739 Y148.479 E0.08717
G1 X134.311 Y142.051 E0.75620
G1 X134.311 Y143.099 E0.08717
G1 X140.739 Y149.527 E0.75620
G1 X140.739 Y150.575 E0.08717
G1 X134.311 Y144.147 E0.75620
G1 X134.311 Y145.195 E0.08717
G1 X140.739 Y151.623 E0.75620
G1 X140.739 Y152.671 E0.08717
G1 X134.311 Y146.243 E0.75620
G1 X134.311 Y147.291 E0.08717
G1 X140.739 Y153.719 E0.75620
G1 X140.739 Y154.767 E0.08717
G1 X134.311 Y148.338 E0.75620
G1 X134.311 Y149.386 E0.08717
G1 X140.739 Y155.815 E0.75620
G1 X140.739 Y156.863 E0.08717
G1 X134.311 Y150.434 E0.75620
G1 X134.311 Y151.482 E0.08717
G1 X140.739 Y157.911 E0.75620
G1 X140.739 Y158.959 E0.08717
G1 X134.311 Y152.530 E0.75620
G1 X134.311 Y153.578 E0.08717
G1 X140.739 Y160.007 E0.75620
G1 X140.739 Y161.055 E0.08717
G1 X134.311 Y154.626 E0.75620
G1 X134.311 Y155.674 E0.08717
G1 X140.739 Y162.102 E0.75620
G1 X140.739 Y163.150 E0.08717
G1 X134.311 Y156.722 E0.75620
G1 X134.311 Y157.770 E0.08717
G1 X140.739 Y164.198 E0.75620
G1 X140.739 Y165.246 E0.08717
G1 X134.311 Y158.818 E0.75620
G1 X134.311 Y159.866 E0.08717
G1 X140.739 Y166.294 E0.75620
G1 X140.739 Y167.342 E0.08717
G1 X134.311 Y160.914 E0.75620
G1 X134.311 Y161.962 E0.08717
G1 X140.739 Y168.390 E0.75620
G1 X140.739 Y169.438 E0.08717
G1 X134.311 Y163.010 E0.75620
G1 X134.311 Y164.058 E0.08717
G1 X140.739 Y170.486 E0.75620
G1 X140.739 Y171.534 E0.08717
G1 X134.311 Y165.106 E0.75620
G1 X134.311 Y166.154 E0.08717
G1 X140.739 Y172.582 E0.75620
G1 X140.739 Y173.630 E0.08717
G1 X134.311 Y167.202 E0.75620
G1 X134.311 Y168.250 E0.08717
G1 X140.739 Y174.678 E0.75620
G1 X140.739 Y175.726 E0.08717
G1 X134.311 Y169.298 E0.75620
G1 X134.311 Y170.346 E0.08717
G1 X140.739 Y176.774 E0.75620
G1 X140.739 Y177.822 E0.08717
G1 X134.311 Y171.394 E0.75620
G1 X134.311 Y172.442 E0.08717
G1 X140.739 Y178.870 E0.75620
G1 X140.739 Y179.918 E0.08717
G1 X134.311 Y173.490 E0.75620
G1 X134.311 Y174.538 E0.08717
G1 X140.739 Y180.966 E0.75620
G1 X140.739 Y182.014 E0.08717
G1 X134.311 Y175.585 E0.75620
G1 X134.311 Y176.633 E0.08717
G1 X140.739 Y183.062 E0.75620
G1 X140.739 Y184.110 E0.08717
G1 X134.311 Y177.681 E0.75620
G1 X134.311 Y178.729 E0.08717
G1 X141.070 Y185.489 E0.79514
G10 ; retract
G1 X133.980 Y192.022 F21000.000
G11 ; unretract
G1 F2700
G1 X135.147 Y193.189 E0.13732
G1 X136.195 Y193.189 E0.08717
G1 X134.311 Y191.305 E0.22166
G1 X134.311 Y190.257 E0.08717
G1 X137.243 Y193.189 E0.34494
G1 X138.291 Y193.189 E0.08717
G1 X134.311 Y189.209 E0.46821
G1 X134.311 Y188.161 E0.08717
G1 X139.339 Y193.189 E0.59149
G1 X140.387 Y193.189 E0.08717
G1 X134.311 Y187.113 E0.71477
G1 X134.311 Y186.065 E0.08717
G1 X141.435 Y193.189 E0.83805
G1 X142.483 Y193.189 E0.08717
G1 X134.311 Y185.017 E0.96133
G1 X134.311 Y183.969 E0.08717
G1 X143.531 Y193.189 E1.08461
G1 X144.579 Y193.189 E0.08717
G1 X134.311 Y182.921 E1.20789
G1 X134.311 Y181.873 E0.08717
G1 X145.627 Y193.189 E1.33116
G1 X146.675 Y193.189 E0.08717
G1 X134.311 Y180.825 E1.45444
G1 X134.311 Y179.777 E0.08717
G1 X147.723 Y193.189 E1.57772
G1 X148.771 Y193.189 E0.08717
G1 X142.342 Y186.761 E0.75620
G1 X143.390 Y186.761 E0.08717
G1 X149.819 Y193.189 E0.75620
G1 X150.867 Y193.189 E0.08717
G1 X144.438 Y186.761 E0.75620
G1 X145.486 Y186.761 E0.08717
G1 X151.915 Y193.189 E0.75620
G1 X152.962 Y193.189 E0.08717
G1 X146.534 Y186.761 E0.75620
G1 X147.582 Y186.761 E0.08717
G1 X154.010 Y193.189 E0.75620
G1 X155.058 Y193.189 E0.08717
G1 X148.630 Y186.761 E0.75620
G1 X149.678 Y186.761 E0.08717
G1 X156.106 Y193.189 E0.75620
G1 X157.154 Y193.189 E0.08717
G1 X150.726 Y186.761 E0.75620
G1 X151.774 Y186.761 E0.08717
G1 X158.202 Y193.189 E0.75620
G1 X159.250 Y193.189 E0.08717
G1 X152.822 Y186.761 E0.75620
G1 X153.870 Y186.761 E0.08717
G1 X160.298 Y193.189 E0.75620
G1 X161.346 Y193.189 E0.08717
G1 X154.918 Y186.761 E0.75620
G1 X155.966 Y186.761 E0.08717
G1 X162.394 Y193.189 E0.75620
G1 X163.442 Y193.189 E0.08717
G1 X157.014 Y186.761 E0.75620
G1 X158.062 Y186.761 E0.08717
G1 X164.490 Y193.189 E0.75620
G1 X165.538 Y193.189 E0.08717
G1 X159.110 Y186.761 E0.75620
G1 X159.261 Y186.761 E0.01257
G1 X159.261 Y185.864 E0.07460
G1 X166.586 Y193.189 E0.86170
G1 X167.634 Y193.189 E0.08717
G1 X159.261 Y184.816 E0.98498
G1 X159.261 Y183.768 E0.08717
G1 X168.682 Y193.189 E1.10826
G1 X169.730 Y193.189 E0.08717
G1 X159.261 Y182.720 E1.23154
G1 X159.261 Y181.672 E0.08717
G1 X171.109 Y193.520 E1.39376
G10 ; retract
G1 X191.020 Y151.602 F21000.000
G11 ; unretract
G1 F2700
G1 X184.261 Y144.843 E0.79514
G1 X184.261 Y145.890 E0.08717
G1 X190.689 Y152.319 E0.75620
G1 X190.689 Y153.367 E0.08717
G1 X184.261 Y146.938 E0.75620
G1 X184.261 Y147.986 E0.08717
G1 X190.689 Y154.415 E0.75620
G1 X190.689 Y155.463 E0.08717
G1 X184.261 Y149.034 E0.75620
G1 X184.261 Y150.082 E0.08717
G1 X190.689 Y156.511 E0.75620
G1 X190.689 Y157.559 E0.08717
G1 X184.261 Y151.130 E0.75620
G1 X184.261 Y152.178 E0.08717
G1 X190.689 Y158.606 E0.75620
G1 X190.689 Y159.654 E0.08717
G1 X184.261 Y153.226 E0.75620
G1 X184.261 Y154.274 E0.08717
G1 X190.689 Y160.702 E0.75620
G1 X190.689 Y161.750 E0.08717
G1 X184.261 Y155.322 E0.75620
G1 X184.261 Y156.370 E0.08717
G1 X190.689 Y162.798 E0.75620
G1 X190.689 Y163.846 E0.08717
G1 X184.261 Y157.418 E0.75620
G1 X184.261 Y158.466 E0.08717
G1 X190.689 Y164.894 E0.75620
G1 X190.689 Y165.942 E0.08717
G1 X184.261 Y159.514 E0.75620
G1 X184.261 Y160.562 E0.08717
G1 X190.689 Y166.990 E0.75620
G1 X190.689 Y168.038 E0.08717
G1 X184.261 Y161.610 E0.75620
G1 X184.261 Y162.658 E0.08717
G1 X190.689 Y169.086 E0.75620
G1 X190.689 Y170.134 E0.08717
G1 X184.261 Y163.706 E0.75620
G1 X184.261 Y164.754 E0.08717
G1 X190.689 Y171.182 E0.75620
G1 X190.689 Y172.230 E0.08717
G1 X184.261 Y165.802 E0.75620
G1 X184.261 Y166.850 E0.08717
G1 X190.689 Y173.278 E0.75620
G1 X190.689 Y174.326 E0.08717
G1 X184.261 Y167.898 E0.75620
G1 X184.261 Y168.946 E0.08717
G1 X190.689 Y175.374 E0.75620
G1 X190.689 Y176.422 E0.08717
G1 X184.261 Y169.994 E0.75620
G1 X184.261 Y171.042 E0.08717
G1 X190.689 Y177.470 E0.75620
G1 X190.689 Y178.518 E0.08717
G1 X184.261 Y172.089 E0.75620
G1 X184.261 Y173.137 E0.08717
G1 X190.689 Y179.566 E0.75620
G1 X190.689 Y180.614 E0.08717
G1 X184.261 Y174.185 E0.75620
G1 X184.261 Y175.233 E0.08717
G1 X190.689 Y181.662 E0.75620
G1 X190.689 Y182.710 E0.08717
G1 X184.261 Y176.281 E0.75620
G1 X184.261 Y177.329 E0.08717
G1 X190.689 Y183.758 E0.75620
G1 X190.689 Y184.805 E0.08717
G1 X184.261 Y178.377 E0.75620
G1 X184.261 Y179.425 E0.08717
G1 X190.689 Y185.853 E0.75620
G1 X190.689 Y186.901 E0.08717
G1 X184.261 Y180.473 E0.75620
G1 X184.261 Y181.521 E0.08717
G1 X190.689 Y187.949 E0.75620
G1 X190.689 Y188.997 E0.08717
G1 X184.261 Y182.569 E0.75620
G1 X184.261 Y183.617 E0.08717
G1 X190.689 Y190.045 E0.75620
G1 X190.689 Y191.093 E0.08717
G1 X184.261 Y184.665 E0.75620
G1 X184.261 Y185.713 E0.08717
G1 X190.689 Y192.141 E0.75620
G1 X190.689 Y193.189 E0.08717
G1 X184.261 Y186.761 E0.75620
G1 X183.213 Y186.761 E0.08717
G1 X189.641 Y193.189 E0.75620
G1 X188.593 Y193.189 E0.08717
G1 X182.165 Y186.761 E0.75620
G1 X181.117 Y186.761 E0.08717
G1 X187.545 Y193.189 E0.75620
G1 X186.497 Y193.189 E0.08717
G1 X180.069 Y186.761 E0.75620
G1 X179.021 Y186.761 E0.08717
G1 X185.449 Y193.189 E0.75620
G1 X184.401 Y193.189 E0.08717
G1 X177.973 Y186.761 E0.75620
G1 X176.925 Y186.761 E0.08717
G1 X183.353 Y193.189 E0.75620
G1 X182.305 Y193.189 E0.08717
