; generated by Slic3r 1.2.9 on 2017-06-28 at 21:07:31

; external perimeters extrusion width = 0.50mm
; perimeters extrusion width = 0.50mm
; infill extrusion width = 0.50mm
; solid infill extrusion width = 0.50mm
; top infill extrusion width = 0.50mm

; external perimeters extrusion width = 0.50mm
; perimeters extrusion width = 0.50mm
; infill extrusion width = 0.50mm
; solid infill extrusion width = 0.50mm
; top infill extrusion width = 0.50mm

; external perimeters extrusion width = 0.50mm
; perimeters extrusion width = 0.50mm
; infill extrusion width = 0.50mm
; solid infill extrusion width = 0.50mm
; top infill extrusion width = 0.50mm

M107
M190 S50 ; set bed temperature
G28; home all
; layer_height =0.3
G10 P0 S195 R195               ; Set tool 0 operating and standby temperatures
G10 P1 S195 R195               ; Set tool 1 operating and standby temperatures
G10 P2 S195 R195               ; Set tool 2 operating and standby temperatures
G10 P3 S195 R195               ; Set tool 3 operating and standby temperatures
G1 Y0 F9000 ; move to Y =zero 
T0; select a tool 0 
M109 S195 ; complete tool heating to 195 and wait.
M83; Set extruder to relative

G21 ; set units to millimeters
G90 ; use absolute coordinates
M83 ; use relative distances for extrusion
T0
G10 ; retract
G1 Z0.300 F21000.000
G1 X163.229 Y156.270 F21000.000
G11 ; unretract
G1 X164.939 Y155.035 E0.10890 F2700.000
G1 X167.313 Y154.508 E0.12551
G1 X227.213 Y154.508 E3.09181
G1 X229.285 Y154.905 E0.10890
G1 X231.064 Y156.038 E0.10890 F2700.000
G1 X232.300 Y157.748 E0.10890
G1 X232.826 Y160.122 E0.12551
G1 X232.826 Y220.022 E3.09181
G1 X232.430 Y222.094 E0.10890
G1 X231.297 Y223.874 E0.10890
G1 X229.586 Y225.109 E0.10890
G1 X227.213 Y225.636 E0.12551
G1 X167.313 Y225.636 E3.09181
G1 X165.240 Y225.239 E0.10890
G1 X163.461 Y224.106 E0.10890
G1 X162.225 Y222.396 E0.10890
G1 X161.699 Y220.022 E0.12551
G1 X161.699 Y160.122 E3.09181
G1 X162.095 Y158.050 E0.10890
G1 X163.188 Y156.334 E0.10503
G1 X163.610 Y156.526 F21000.000
G1 X163.658 Y156.453 E0.00451 F2700.000
G1 X165.345 Y155.332 E0.10455
G1 X167.313 Y154.944 E0.10350
G1 X227.213 Y154.944 E3.09181
G1 X229.199 Y155.340 E0.10455
G1 X230.881 Y156.468 E0.10455 F2700.000
G1 X232.002 Y158.155 E0.10455
G1 X232.391 Y160.122 E0.10350
G1 X232.391 Y220.022 E3.09181
G1 X231.995 Y222.008 E0.10455
G1 X230.867 Y223.691 E0.10455
G1 X229.180 Y224.812 E0.10455
G1 X227.213 Y225.200 E0.10350
G1 X167.313 Y225.200 E3.09181
G1 X165.326 Y224.804 E0.10455
G1 X163.644 Y223.676 E0.10455
G1 X162.523 Y221.989 E0.10455
G1 X162.134 Y220.022 E0.10350
G1 X162.134 Y160.122 E3.09181
G1 X162.531 Y158.136 E0.10455
G1 X163.568 Y156.588 E0.09616
G1 X163.984 Y156.791 F21000.000
G1 X164.087 Y156.645 E0.00924 F2700.000
G1 X165.747 Y155.645 E0.10001
G1 X167.313 Y155.380 E0.08198
G1 X227.213 Y155.380 E3.09181
G1 X229.109 Y155.775 E0.10001
G1 X230.689 Y156.897 E0.10001 F2700.000
G1 X231.689 Y158.556 E0.10001
G1 X231.955 Y160.122 E0.08198
G1 X231.955 Y220.022 E3.09181
G1 X231.559 Y221.919 E0.10001
G1 X230.438 Y223.499 E0.10001
G1 X228.778 Y224.499 E0.10001
G1 X227.213 Y224.765 E0.08198
G1 X167.313 Y224.765 E3.09181
G1 X165.416 Y224.369 E0.10001
G1 X163.836 Y223.247 E0.10001
G1 X162.836 Y221.588 E0.10001
G1 X162.570 Y220.022 E0.08198
G1 X162.570 Y160.122 E3.09181
G1 X162.966 Y158.225 E0.10001
G1 X163.940 Y156.852 E0.08690
G10 ; retract
T1
G1 X164.348 Y157.067 F21000.000
G1 X164.515 Y156.848 E0.01420 F2700.000
G1 X166.142 Y155.977 E0.09525
G1 X167.313 Y155.815 E0.06101
G1 X227.213 Y155.815 E3.09181
G1 X229.015 Y156.211 E0.09525
G1 X230.487 Y157.324 E0.09525 F2700.000
G1 X231.357 Y158.951 E0.09525
G1 X231.519 Y160.122 E0.06101
G1 X231.519 Y220.022 E3.09181
G1 X231.124 Y221.825 E0.09525
G1 X230.011 Y223.296 E0.09525
G1 X228.383 Y224.167 E0.09525
G1 X227.213 Y224.329 E0.06101
G1 X167.313 Y224.329 E3.09181
G1 X165.510 Y223.934 E0.09525
G1 X164.038 Y222.820 E0.09525
G1 X163.168 Y221.193 E0.09525
G1 X163.006 Y220.022 E0.06101
G1 X163.006 Y160.122 E3.09181
G1 X163.401 Y158.319 E0.09525
G1 X164.303 Y157.127 E0.07718
G1 X164.702 Y157.355 F21000.000
G1 X164.940 Y157.063 E0.01946 F2700.000
G1 X167.313 Y156.251 E0.12943
G1 X227.213 Y156.251 E3.09181
G1 X228.916 Y156.646 E0.09025
G1 X230.272 Y157.750 E0.09025 F2700.000
G1 X231.084 Y160.122 E0.12943
G1 X231.084 Y220.022 E3.09181
G1 X230.689 Y221.725 E0.09025
G1 X229.585 Y223.081 E0.09025
G1 X227.213 Y223.893 E0.12943
G1 X167.313 Y223.893 E3.09181
G1 X165.609 Y223.498 E0.09025
G1 X164.253 Y222.394 E0.09025
G1 X163.441 Y220.022 E0.12943
G1 X163.441 Y160.122 E3.09181
G1 X163.836 Y158.419 E0.09025
G1 X164.655 Y157.413 E0.06692
G1 X165.041 Y157.656 F21000.000
G1 X165.363 Y157.293 E0.02505 F2700.000
G1 X167.313 Y156.686 E0.10538
G1 X227.213 Y156.686 E3.09181
G1 X228.810 Y157.081 E0.08495
G1 X230.042 Y158.173 E0.08495 F2700.000
G1 X230.648 Y160.122 E0.10538
G1 X230.648 Y220.022 E3.09181
G1 X230.254 Y221.620 E0.08495
G1 X229.162 Y222.851 E0.08495
G1 X227.213 Y223.458 E0.10538
G1 X167.313 Y223.458 E3.09181
G1 X165.715 Y223.063 E0.08495
G1 X164.484 Y221.971 E0.08495
G1 X163.877 Y220.022 E0.10538
G1 X163.877 Y160.122 E3.09181
G1 X164.271 Y158.524 E0.08495
G1 X164.991 Y157.712 E0.05603
G10 ; retract
G1 X191.577 Y209.386 F21000.000
G11 ; unretract
G1 X177.948 Y209.386 E0.70347 F2700.000
G1 X177.948 Y170.758 E1.99387
G1 X191.577 Y170.758 E0.70347
G1 X191.577 Y209.311 E1.99000
G1 X192.013 Y209.822 F21000.000
G1 X177.513 Y209.822 E0.74844 F2700.000
G1 X177.513 Y170.322 E2.03884
G1 X192.013 Y170.322 E0.74844
G1 X192.013 Y209.747 E2.03497
G1 X191.580 Y209.572 F21000.000
G10 ; retract
G1 X178.206 Y208.904 F21000.000
G11 ; unretract
G1 X178.431 Y209.129 E0.01649 F2700.000
G1 X179.050 Y209.129 E0.03213
G1 X178.206 Y208.285 E0.06193
G1 X178.206 Y207.665 E0.03213
G1 X179.669 Y209.129 E0.10736
G1 X180.288 Y209.129 E0.03213
G1 X178.206 Y207.046 E0.15279
G1 X178.206 Y206.427 E0.03213
G1 X180.908 Y209.129 E0.19823
G1 X181.527 Y209.129 E0.03213
G1 X178.206 Y205.808 E0.24366
G1 X178.206 Y205.188 E0.03213
G1 X182.146 Y209.129 E0.28909
G1 X182.765 Y209.129 E0.03213
G1 X178.206 Y204.569 E0.33453
G1 X178.206 Y203.950 E0.03213
G1 X183.385 Y209.129 E0.37996
G1 X184.004 Y209.129 E0.03213
G1 X178.206 Y203.331 E0.42539
G1 X178.206 Y202.712 E0.03213
G1 X184.623 Y209.129 E0.47083
G1 X185.242 Y209.129 E0.03213
G1 X178.206 Y202.092 E0.51626
G1 X178.206 Y201.473 E0.03213
G1 X185.861 Y209.129 E0.56170
G1 X186.481 Y209.129 E0.03213
G1 X178.206 Y200.854 E0.60713
G1 X178.206 Y200.235 E0.03213
G1 X187.100 Y209.129 E0.65256
G1 X187.719 Y209.129 E0.03213
G1 X178.206 Y199.615 E0.69800
G1 X178.206 Y198.996 E0.03213
G1 X188.338 Y209.129 E0.74343
G1 X188.958 Y209.129 E0.03213
G1 X178.206 Y198.377 E0.78886
G1 X178.206 Y197.758 E0.03213
G1 X189.577 Y209.129 E0.83430
G1 X190.196 Y209.129 E0.03213
G1 X178.206 Y197.139 E0.87973
G1 X178.206 Y196.519 E0.03213
G1 X190.815 Y209.129 E0.92516
G1 X191.319 Y209.013 E0.02681
G1 X178.206 Y195.900 E0.96213
G1 X178.206 Y195.281 E0.03213
G1 X191.319 Y208.394 E0.96213
G1 X191.319 Y207.775 E0.03213
G1 X178.206 Y194.662 E0.96213
G1 X178.206 Y194.042 E0.03213
G1 X191.319 Y207.155 E0.96213
G1 X191.319 Y206.536 E0.03213
G1 X178.206 Y193.423 E0.96213
G1 X178.206 Y192.804 E0.03213
G1 X191.319 Y205.917 E0.96213
G1 X191.319 Y205.298 E0.03213
G1 X178.206 Y192.185 E0.96213
G1 X178.206 Y191.565 E0.03213
G1 X191.319 Y204.679 E0.96213
G1 X191.319 Y204.059 E0.03213
G1 X178.206 Y190.946 E0.96213
G1 X178.206 Y190.327 E0.03213
G1 X191.319 Y203.440 E0.96213
G1 X191.319 Y202.821 E0.03213
G1 X178.206 Y189.708 E0.96213
G1 X178.206 Y189.089 E0.03213
G1 X191.319 Y202.202 E0.96213
G1 X191.319 Y201.582 E0.03213
G1 X178.206 Y188.469 E0.96213
G1 X178.206 Y187.850 E0.03213
G1 X191.319 Y200.963 E0.96213
G1 X191.319 Y200.344 E0.03213
G1 X178.206 Y187.231 E0.96213
G1 X178.206 Y186.612 E0.03213
G1 X191.319 Y199.725 E0.96213
G1 X191.319 Y199.106 E0.03213
G1 X178.206 Y185.992 E0.96213
G1 X178.206 Y185.373 E0.03213
G1 X191.319 Y198.486 E0.96213
G1 X191.319 Y197.867 E0.03213
G1 X178.206 Y184.754 E0.96213
G1 X178.206 Y184.135 E0.03213
G1 X191.319 Y197.248 E0.96213
G1 X191.319 Y196.629 E0.03213
G1 X178.206 Y183.516 E0.96213
G1 X178.206 Y182.896 E0.03213
G1 X191.319 Y196.009 E0.96213
G1 X191.319 Y195.390 E0.03213
G1 X178.206 Y182.277 E0.96213
G1 X178.206 Y181.658 E0.03213
G1 X191.319 Y194.771 E0.96213
G1 X191.319 Y194.152 E0.03213
G1 X178.206 Y181.039 E0.96213
G1 X178.206 Y180.419 E0.03213
G1 X191.319 Y193.532 E0.96213
G1 X191.319 Y192.913 E0.03213
G1 X178.206 Y179.800 E0.96213
G1 X178.206 Y179.181 E0.03213
G1 X191.319 Y192.294 E0.96213
G1 X191.319 Y191.675 E0.03213
G1 X178.206 Y178.562 E0.96213
G1 X178.206 Y177.942 E0.03213
G1 X191.319 Y191.056 E0.96213
G1 X191.319 Y190.436 E0.03213
G1 X178.206 Y177.323 E0.96213
G1 X178.206 Y176.704 E0.03213
G1 X191.319 Y189.817 E0.96213
G1 X191.319 Y189.198 E0.03213
G1 X178.206 Y176.085 E0.96213
G1 X178.206 Y175.466 E0.03213
G1 X191.319 Y188.579 E0.96213
G1 X191.319 Y187.959 E0.03213
G1 X178.206 Y174.846 E0.96213
G1 X178.206 Y174.227 E0.03213
G1 X191.319 Y187.340 E0.96213
G1 X191.319 Y186.721 E0.03213
G1 X178.206 Y173.608 E0.96213
G1 X178.206 Y172.989 E0.03213
G1 X191.319 Y186.102 E0.96213
G1 X191.319 Y185.483 E0.03213
G1 X178.206 Y172.369 E0.96213
G1 X178.206 Y171.750 E0.03213
G1 X191.319 Y184.863 E0.96213
G1 X191.319 Y184.244 E0.03213
G1 X178.206 Y171.131 E0.96213
G1 X178.710 Y171.016 E0.02681
G1 X191.319 Y183.625 E0.92517
G1 X191.319 Y183.006 E0.03213
G1 X179.329 Y171.016 E0.87973
G1 X179.948 Y171.016 E0.03213
G1 X191.319 Y182.386 E0.83430
G1 X191.319 Y181.767 E0.03213
G1 X180.567 Y171.016 E0.78887
G1 X181.187 Y171.016 E0.03213
G1 X191.319 Y181.148 E0.74343
G1 X191.319 Y180.529 E0.03213
G1 X181.806 Y171.016 E0.69800
G1 X182.425 Y171.016 E0.03213
G1 X191.319 Y179.909 E0.65257
G1 X191.319 Y179.290 E0.03213
G1 X183.044 Y171.016 E0.60713
G1 X183.664 Y171.016 E0.03213
G1 X191.319 Y178.671 E0.56170
G1 X191.319 Y178.052 E0.03213
G1 X184.283 Y171.016 E0.51627
G1 X184.902 Y171.016 E0.03213
G1 X191.319 Y177.433 E0.47083
G1 X191.319 Y176.813 E0.03213
G1 X185.521 Y171.016 E0.42540
G1 X186.140 Y171.016 E0.03213
G1 X191.319 Y176.194 E0.37996
G1 X191.319 Y175.575 E0.03213
G1 X186.760 Y171.016 E0.33453
G1 X187.379 Y171.016 E0.03213
G1 X191.319 Y174.956 E0.28910
G1 X191.319 Y174.336 E0.03213
G1 X187.998 Y171.016 E0.24366
G1 X188.617 Y171.016 E0.03213
G1 X191.319 Y173.717 E0.19823
G1 X191.319 Y173.098 E0.03213
G1 X189.237 Y171.016 E0.15280
G1 X189.856 Y171.016 E0.03213
G1 X191.319 Y172.479 E0.10736
G1 X191.319 Y171.860 E0.03213
G1 X190.475 Y171.016 E0.06193
G1 X191.094 Y171.016 E0.03213
G1 X191.319 Y171.240 E0.01650
G10 ; retract
T0
G1 X201.577 Y210.758 F21000.000
G11 ; unretract
G1 X201.577 Y169.386 E2.13543 F2700.000
G1 X217.948 Y169.386 E0.84502
G1 X217.948 Y210.758 E2.13543
G1 X201.652 Y210.758 E0.84115
G1 X202.013 Y210.322 F21000.000
G1 X202.013 Y169.822 E2.09046 F2700.000
G1 X217.513 Y169.822 E0.80005
G1 X217.513 Y210.322 E2.09046
G1 X202.088 Y210.322 E0.79618
G1 X201.513 Y210.322 F21000.000
G10 ; retract
G1 X192.948 Y210.758 F21000.000
G11 ; unretract
G1 X176.577 Y210.758 E0.84502 F2700.000
G1 X176.577 Y169.386 E2.13543
G1 X192.948 Y169.386 E0.84502
G1 X192.948 Y210.683 E2.13156
G1 X192.513 Y210.322 F21000.000
G1 X177.013 Y210.322 E0.80005 F2700.000
G1 X177.013 Y169.822 E2.09046
G1 X192.513 Y169.822 E0.80005
G1 X192.513 Y210.247 E2.08659
G1 X192.513 Y210.822 F21000.000
G10 ; retract
G1 X167.998 Y219.336 F21000.000
G11 ; unretract
G1 X167.998 Y160.808 E3.02103 F2700.000
G1 X226.527 Y160.808 E3.02103
G1 X226.527 Y219.336 E3.02103
G1 X168.073 Y219.336 E3.01716
G1 X167.563 Y219.772 F21000.000
G1 X167.563 Y160.372 E3.06600 F2700.000
G1 X226.963 Y160.372 E3.06600
G1 X226.963 Y219.772 E3.06600
G1 X167.638 Y219.772 E3.06213
G1 X167.813 Y219.339 F21000.000
G1 X168.481 Y219.079 F21000.000
G1 X168.256 Y218.854 E0.01646 F2700.000
G1 X168.256 Y218.236 E0.03201
G1 X169.099 Y219.079 E0.06172
G1 X169.717 Y219.079 E0.03201
G1 X168.256 Y217.618 E0.10698
G1 X168.256 Y217.000 E0.03201
G1 X170.335 Y219.079 E0.15224
G1 X170.953 Y219.079 E0.03201
G1 X168.256 Y216.382 E0.19750
G1 X168.256 Y215.764 E0.03201
G1 X171.571 Y219.079 E0.24277
G1 X172.189 Y219.079 E0.03201
G1 X168.256 Y215.146 E0.28803
G1 X168.256 Y214.527 E0.03201
G1 X172.807 Y219.079 E0.33329
G1 X173.425 Y219.079 E0.03201
G1 X168.256 Y213.909 E0.37855
G1 X168.256 Y213.291 E0.03201
G1 X174.043 Y219.079 E0.42382
G1 X174.661 Y219.079 E0.03201
G1 X168.256 Y212.673 E0.46908
G1 X168.256 Y212.055 E0.03201
G1 X175.279 Y219.079 E0.51434
G1 X175.897 Y219.079 E0.03201
G1 X168.256 Y211.437 E0.55960
G1 X168.256 Y210.819 E0.03201
G1 X176.515 Y219.079 E0.60486
G1 X177.134 Y219.079 E0.03201
G1 X168.256 Y210.201 E0.65013
G1 X168.256 Y209.583 E0.03201
G1 X177.752 Y219.079 E0.69539
G1 X178.370 Y219.079 E0.03201
G1 X168.256 Y208.965 E0.74065
G1 X168.256 Y208.347 E0.03201
G1 X178.988 Y219.079 E0.78591
G1 X179.606 Y219.079 E0.03201
G1 X168.256 Y207.729 E0.83117
G1 X168.256 Y207.111 E0.03201
G1 X180.224 Y219.079 E0.87644
G1 X180.842 Y219.079 E0.03201
G1 X168.256 Y206.493 E0.92170
G1 X168.256 Y205.875 E0.03201
G1 X181.460 Y219.079 E0.96696
G1 X182.078 Y219.079 E0.03201
G1 X168.256 Y205.257 E1.01222
G1 X168.256 Y204.639 E0.03201
G1 X182.696 Y219.079 E1.05749
G1 X183.314 Y219.079 E0.03201
G1 X168.256 Y204.021 E1.10275
G1 X168.256 Y203.402 E0.03201
G1 X183.932 Y219.079 E1.14801
G10 ; retract
G1 X201.319 Y210.507 F21000.000
G11 ; unretract
G1 X193.206 Y202.394 E0.59414 F2700.000
G1 X193.206 Y201.776 E0.03201
G1 X201.319 Y209.889 E0.59414
G1 X201.319 Y209.271 E0.03201
G1 X193.206 Y201.158 E0.59414
G1 X193.206 Y200.540 E0.03201
G1 X201.319 Y208.653 E0.59414
G1 X201.319 Y208.035 E0.03201
G1 X193.206 Y199.922 E0.59414
G1 X193.206 Y199.304 E0.03201
G1 X201.319 Y207.417 E0.59414
G1 X201.319 Y206.799 E0.03201
G1 X193.206 Y198.686 E0.59414
G1 X193.206 Y198.068 E0.03201
G1 X201.319 Y206.181 E0.59414
G1 X201.319 Y205.563 E0.03201
G1 X193.206 Y197.450 E0.59414
G1 X193.206 Y196.832 E0.03201
G1 X201.319 Y204.945 E0.59414
G1 X201.319 Y204.327 E0.03201
G1 X193.206 Y196.214 E0.59414
G1 X193.206 Y195.595 E0.03201
G1 X201.319 Y203.709 E0.59414
G1 X201.319 Y203.090 E0.03201
G1 X193.206 Y194.977 E0.59414
G1 X193.206 Y194.359 E0.03201
G1 X201.319 Y202.472 E0.59414
G1 X201.319 Y201.854 E0.03201
G1 X193.206 Y193.741 E0.59414
G1 X193.206 Y193.123 E0.03201
G1 X201.319 Y201.236 E0.59414
G1 X201.319 Y200.618 E0.03201
G1 X193.206 Y192.505 E0.59414
G1 X193.206 Y191.887 E0.03201
G1 X201.319 Y200.000 E0.59414
G1 X201.319 Y199.382 E0.03201
G1 X193.206 Y191.269 E0.59414
G1 X193.206 Y190.651 E0.03201
G1 X201.319 Y198.764 E0.59414
G1 X201.319 Y198.146 E0.03201
G1 X193.206 Y190.033 E0.59414
G1 X193.206 Y189.415 E0.03201
G1 X201.319 Y197.528 E0.59414
G1 X201.319 Y196.910 E0.03201
G1 X193.206 Y188.797 E0.59414
G1 X193.206 Y188.179 E0.03201
G1 X201.319 Y196.292 E0.59414
G1 X201.319 Y195.674 E0.03201
G1 X193.206 Y187.561 E0.59414
G1 X193.206 Y186.943 E0.03201
G1 X201.319 Y195.056 E0.59414
G1 X201.319 Y194.438 E0.03201
G1 X193.206 Y186.325 E0.59414
G1 X193.206 Y185.707 E0.03201
G1 X201.319 Y193.820 E0.59414
G1 X201.319 Y193.202 E0.03201
G1 X193.206 Y185.088 E0.59414
G1 X193.206 Y184.470 E0.03201
G1 X201.319 Y192.583 E0.59414
G1 X201.319 Y191.965 E0.03201
G1 X193.206 Y183.852 E0.59414
G1 X193.206 Y183.234 E0.03201
G1 X201.319 Y191.347 E0.59414
G1 X201.319 Y190.729 E0.03201
G1 X193.206 Y182.616 E0.59414
G1 X193.206 Y181.998 E0.03201
G1 X201.319 Y190.111 E0.59414
G1 X201.319 Y189.493 E0.03201
G1 X193.206 Y181.380 E0.59414
G1 X193.206 Y180.762 E0.03201
G1 X201.319 Y188.875 E0.59414
G1 X201.319 Y188.257 E0.03201
G1 X193.206 Y180.144 E0.59414
G1 X193.206 Y179.526 E0.03201
G1 X201.319 Y187.639 E0.59414
G1 X201.319 Y187.021 E0.03201
G1 X193.206 Y178.908 E0.59414
G1 X193.206 Y178.290 E0.03201
G1 X201.319 Y186.403 E0.59414
G1 X201.319 Y185.785 E0.03201
G1 X193.206 Y177.672 E0.59414
G1 X193.206 Y177.054 E0.03201
G1 X201.319 Y185.167 E0.59414
G1 X201.319 Y184.549 E0.03201
G1 X193.206 Y176.436 E0.59414
G1 X193.206 Y175.818 E0.03201
G1 X201.319 Y183.931 E0.59414
